; generated by Slic3r 1.1.7 on 2015-04-03 at 11:42:24

; perimeters extrusion width = 0.50mm
; infill extrusion width = 0.52mm
; solid infill extrusion width = 0.52mm
; top infill extrusion width = 0.52mm

G21 ; set units to millimeters
M107
M104 S205 ; set temperature
G28 ; home all axes
G1 Z5 F5000 ; lift nozzle

M109 S205 ; wait for temperature to be reached
G90 ; use absolute coordinates
G92 E0
M82 ; use absolute distances for extrusion
G1 F1800.000 E-1.00000
G92 E0
G1 Z0.500 F7800.000
G1 X45.953 Y74.813 F7800.000
G1 E1.00000 F1800.000
G1 X46.562 Y74.446 E1.04490 F1080.000
G1 X47.066 Y74.201 E1.08027
G1 X52.560 Y71.806 E1.45872
G1 X55.314 Y71.232 E1.63641
G1 X57.854 Y71.236 E1.79675
G1 X123.384 Y73.526 E5.93725 F1080.000
G1 X126.696 Y74.507 E6.15535
G1 X151.238 Y89.283 E7.96429
G1 X151.743 Y89.633 E8.00307
G1 X152.407 Y90.147 E8.05610
G1 X153.471 Y91.137 E8.14787
G1 X153.884 Y91.591 E8.18665
G1 X154.416 Y92.242 E8.23969
G1 X155.229 Y93.446 E8.33146
G1 X155.529 Y93.982 E8.37023
G1 X155.901 Y94.735 E8.42327
G1 X156.422 Y96.092 E8.51505
G1 X156.786 Y97.499 E8.60683
G1 X156.989 Y98.938 E8.69861
G1 X157.027 Y100.391 E8.79038
G1 X156.900 Y101.839 E8.88216
G1 X156.796 Y102.444 E8.92093
G1 X156.610 Y103.263 E8.97397
G1 X156.161 Y104.645 E9.06575
G1 X155.923 Y105.212 E9.10453
G1 X155.558 Y105.968 E9.15756
G1 X154.808 Y107.213 E9.24934
G1 X153.923 Y108.366 E9.34112
G1 X152.913 Y109.411 E9.43289
G1 X152.451 Y109.815 E9.47167
G1 X151.791 Y110.334 E9.52471
G1 X150.866 Y110.957 E9.59506
G1 X126.696 Y125.493 E11.37606
G1 X123.384 Y126.474 E11.59417
G1 X57.623 Y128.768 E15.74923
G1 X55.324 Y128.768 E15.89438
G1 X52.574 Y128.196 E16.07178
G1 X46.568 Y125.557 E16.48603
G1 X45.961 Y125.192 E16.53074
G1 X45.217 Y124.630 E16.58961
G1 X44.703 Y124.147 E16.63415
G1 X44.041 Y123.350 E16.69959
G1 X43.455 Y122.389 E16.77068
G1 X42.949 Y121.113 E16.85737
G1 X42.697 Y119.826 E16.94016
G1 X42.657 Y119.082 E16.98722
G1 X42.690 Y80.246 E19.43953
G1 X42.949 Y78.888 E19.52684
G1 X43.420 Y77.680 E19.60870
G1 X44.027 Y76.669 E19.68314
G1 X44.699 Y75.857 E19.74972
G1 X45.161 Y75.418 E19.78998
G1 X45.891 Y74.855 E19.84816
G1 F1800.000 E18.84816
G92 E0
G1 X57.498 Y118.297 F7800.000
G1 E1.00000 F1800.000
G1 X57.208 Y118.382 E1.01907 F540.000
G1 X56.535 Y118.627 E1.06435
G1 X55.431 Y118.294 E1.13716
G1 X55.521 Y117.684 E1.17609
G1 X57.410 Y117.684 E1.29540
G1 X57.488 Y118.223 E1.32976
G1 F1800.000 E0.32976
G92 E0
G1 X57.902 Y82.447 F7800.000
G1 E1.00000 F1800.000
G1 X55.062 Y82.447 E1.17928 F540.000
G1 X54.981 Y81.825 E1.21887
G1 X55.592 Y81.668 E1.25866
G1 X56.403 Y81.372 E1.31318
G1 X57.378 Y81.671 E1.37761
G1 X57.965 Y81.802 E1.41554
G1 X57.909 Y82.372 E1.45170
G1 X84.154 Y82.699 F7800.000
G1 X87.203 Y82.699 E1.64424 F540.000
G1 X87.203 Y117.301 E3.82915
G1 X84.154 Y117.301 E4.02169
G1 X84.154 Y82.774 E6.20186
G1 X83.261 Y98.853 F7800.000
G1 X83.261 Y81.807 E7.27824 F540.000
G1 X88.096 Y81.807 E7.58352
G1 X88.096 Y118.193 E9.88117
G1 X83.261 Y118.193 E10.18645
G1 X83.261 Y101.147 E11.26283
G1 X73.867 Y101.147 E11.85602
G1 X73.867 Y98.853 E12.00091
G1 X83.186 Y98.853 E12.58937
G1 X82.369 Y97.960 F7800.000
G1 X82.369 Y83.339 E13.51260 F378.000
G1 X50.050 Y83.339 E15.55338
G1 X50.050 Y80.914 E15.70652
G1 X54.815 Y80.911 E16.00741
G1 X55.277 Y80.828 E16.03706
G1 X55.814 Y80.635 E16.07310
G1 X55.814 Y78.624 E16.20007
G1 X57.113 Y78.624 E16.28207
G1 X57.113 Y80.655 E16.41027
G1 X57.798 Y80.859 E16.45539
G1 X58.203 Y80.914 E16.48120
G1 X122.644 Y80.914 E20.55037
G1 X122.644 Y83.208 E20.69525
G1 X88.989 Y83.208 E22.82042
G1 X88.989 Y116.661 E24.93278
G1 X122.644 Y116.661 E27.05794
G1 X122.644 Y119.086 E27.21108
G1 X58.122 Y119.089 E31.28533
G1 X57.660 Y119.172 E31.31498
G1 X57.123 Y119.365 E31.35101
G1 X57.123 Y121.376 E31.47799
G1 X55.824 Y121.376 E31.55999
G1 X55.824 Y119.345 E31.68819
G1 X55.140 Y119.141 E31.73330
G1 X54.735 Y119.086 E31.75912
G1 X50.050 Y119.086 E32.05494
G1 X50.050 Y116.792 E32.19982
G1 X82.369 Y116.792 E34.24059
G1 X82.369 Y102.040 E35.17209
G1 X72.975 Y102.040 E35.76528
G1 X72.975 Y97.960 E36.02291
G1 X82.294 Y97.960 E36.61137
G1 X82.869 Y97.960 F7800.000
G1 X86.536 Y83.327 F7800.000
G1 X86.576 Y83.367 E36.61494 F1080.000
G1 X86.576 Y84.665 E36.69694
G1 X85.237 Y83.327 E36.81647
G1 X84.781 Y84.169 E36.87696
G1 X86.576 Y85.964 E37.03724
G1 X86.576 Y87.262 E37.11924
G1 X84.781 Y85.468 E37.27952
G1 X84.781 Y86.766 E37.36152
G1 X86.576 Y88.561 E37.52180
G1 X86.576 Y89.860 E37.60380
G1 X84.781 Y88.065 E37.76408
G1 X84.781 Y89.363 E37.84608
G1 X86.576 Y91.158 E38.00636
G1 X86.576 Y92.457 E38.08836
G1 X84.781 Y90.662 E38.24864
G1 X84.781 Y91.960 E38.33064
G1 X86.576 Y93.755 E38.49092
G1 X86.576 Y95.054 E38.57292
G1 X84.781 Y93.259 E38.73320
G1 X84.781 Y94.558 E38.81520
G1 X86.576 Y96.352 E38.97548
G1 X86.576 Y97.651 E39.05748
G1 X84.781 Y95.856 E39.21776
G1 X84.781 Y97.155 E39.29976
G1 X86.576 Y98.950 E39.46004
G1 X86.576 Y100.248 E39.54204
G1 X84.781 Y98.453 E39.70232
G1 X84.781 Y99.752 E39.78432
G1 X86.576 Y101.547 E39.94460
G1 X86.576 Y102.845 E40.02660
G1 X84.781 Y101.050 E40.18688
G1 X84.781 Y102.349 E40.26888
G1 X86.576 Y104.144 E40.42916
G1 X86.576 Y105.442 E40.51116
G1 X84.781 Y103.648 E40.67144
G1 X84.781 Y104.946 E40.75344
G1 X86.576 Y106.741 E40.91372
G1 X86.576 Y108.040 E40.99572
G1 X84.781 Y106.245 E41.15600
G1 X84.781 Y107.543 E41.23799
G1 X86.576 Y109.338 E41.39827
G1 X86.576 Y110.637 E41.48027
G1 X84.781 Y108.842 E41.64055
G1 X84.781 Y110.141 E41.72255
G1 X86.576 Y111.935 E41.88283
G1 X86.576 Y113.234 E41.96483
G1 X84.781 Y111.439 E42.12511
G1 X84.781 Y112.738 E42.20711
G1 X86.576 Y114.532 E42.36739
G1 X86.576 Y115.831 E42.44939
G1 X84.781 Y114.036 E42.60967
G1 X84.781 Y115.335 E42.69167
G1 X86.120 Y116.673 E42.81121
G1 X84.821 Y116.673 E42.89321
G1 X84.781 Y116.633 E42.89678
G1 X82.815 Y82.127 F7800.000
G1 X58.381 Y82.127 E45.30382 F360.000
G1 X84.862 Y81.414 F7800.000
G1 X88.489 Y100.477 F7800.000
G1 X74.314 Y100.000 F7800.000
G1 X83.708 Y100.000 E46.22926 F360.000
G1 X82.815 Y117.939 F7800.000
G1 X57.898 Y117.939 E48.68394 F360.000
G1 X55.032 Y117.939 F7800.000
G1 X50.496 Y117.939 E49.13076 F360.000
G1 F1800.000 E48.13076
G92 E0
G1 X50.496 Y82.127 F7800.000
G1 E1.00000 F1800.000
G1 X54.570 Y82.127 E1.40135 F360.000
G1 X88.542 Y82.061 F7800.000
G1 X122.197 Y82.061 E4.71681 F360.000
G1 F1800.000 E3.71681
G92 E0
G1 X122.197 Y117.873 F7800.000
G1 E1.00000 F1800.000
G1 X88.542 Y117.873 E4.31546 F360.000
G1 F1800.000 E3.31546
G92 E0
G1 X84.862 Y81.414 F7800.000
G1 X120.720 Y82.708 F7800.000
G1 X117.969 Y85.708 F7800.000
G1 X119.079 Y86.887 F7800.000
G1 E1.00000 F1800.000
G1 X120.858 Y86.887 E1.11235 F540.000
G1 X120.858 Y113.113 E2.76845
G1 X119.079 Y113.113 E2.88080
G1 X119.079 Y86.962 E4.53216
G1 X118.186 Y85.994 F7800.000
G1 X121.751 Y85.994 E4.75725 F540.000
G1 X121.751 Y114.006 E6.52609
G1 X118.186 Y114.006 E6.75117
G1 X118.186 Y86.069 E8.51528
G1 X117.294 Y85.101 F7800.000
G1 X122.644 Y85.101 E8.85311 F378.000
G1 X122.644 Y114.899 E10.73468
G1 X117.294 Y114.899 E11.07251
G1 X117.294 Y85.176 E12.94936
G1 X117.727 Y85.351 F7800.000
G1 X119.969 Y87.333 F7800.000
G1 X119.969 Y112.667 E13.84536 F360.000
G1 X121.652 Y102.422 F7800.000
G1 X124.652 Y97.472 F7800.000
G1 X129.431 Y98.685 F7800.000
G1 X129.608 Y98.555 E13.85920 F540.000
G1 X129.953 Y98.389 E13.88335
G1 X130.136 Y98.337 E13.89542
G1 X130.477 Y98.296 E13.91707
G1 X142.322 Y98.298 E14.66505
G1 X142.619 Y98.337 E14.68393 F540.000
G1 X142.980 Y98.463 E14.70806
G1 X143.303 Y98.666 E14.73218
G1 X143.446 Y98.793 E14.74425
G1 X143.573 Y98.936 E14.75635
G1 X143.776 Y99.260 E14.78048
G1 X143.903 Y99.620 E14.80459
G1 X143.945 Y100.000 E14.82872
G1 X143.903 Y100.380 E14.85284
G1 X143.818 Y100.640 E14.87015
G1 X143.684 Y100.908 E14.88904
G1 X143.446 Y101.207 E14.91317
G1 X143.303 Y101.334 E14.92525
G1 X142.980 Y101.537 E14.94937
G1 X142.619 Y101.663 E14.97351
G1 X142.278 Y101.704 E14.99515
G1 X130.477 Y101.704 E15.74035
G1 X130.137 Y101.663 E15.76201
G1 X129.776 Y101.537 E15.78615
G1 X129.453 Y101.334 E15.81025
G1 X129.310 Y101.206 E15.82234
G1 X129.071 Y100.908 E15.84647
G1 X128.947 Y100.663 E15.86378
G1 X128.853 Y100.380 E15.88265
G1 X128.821 Y100.191 E15.89476
G1 X128.821 Y99.809 E15.91887
G1 X128.906 Y99.436 E15.94300
G1 X129.071 Y99.092 E15.96712
G1 X129.182 Y98.936 E15.97920
G1 X129.375 Y98.735 E15.99684
G1 X129.704 Y100.000 F7800.000
G1 X129.724 Y99.819 E16.00832 F378.000
G1 X129.784 Y99.648 E16.01980
G1 X129.942 Y99.426 E16.03698
G1 X130.164 Y99.268 E16.05416
G1 X130.335 Y99.208 E16.06564
G1 X130.502 Y99.189 E16.07624
G1 X142.330 Y99.193 E16.82313
G1 X142.592 Y99.268 E16.84031
G1 X142.745 Y99.365 E16.85179
G1 X142.874 Y99.494 E16.86327
G1 X143.006 Y99.732 E16.88044
G1 X143.051 Y100.000 E16.89763
G1 X143.031 Y100.181 E16.90911
G1 X142.993 Y100.299 E16.91694
G1 X142.927 Y100.432 E16.92634
G1 X142.813 Y100.574 E16.93782
G1 X142.592 Y100.732 E16.95500
G1 X142.420 Y100.792 E16.96649
G1 X142.253 Y100.811 E16.97708
G1 X130.425 Y100.807 E17.72397
G1 X130.164 Y100.732 E17.74115
G1 X129.942 Y100.574 E17.75833
G1 X129.784 Y100.352 E17.77550
G1 X129.708 Y100.075 E17.79367
G1 X129.547 Y99.909 F7800.000
G1 X140.883 Y102.597 F7800.000
G1 X142.531 Y102.584 E17.89772 F540.000
G1 X142.817 Y102.535 E17.91610
G1 X143.098 Y102.454 E17.93454
G1 X143.368 Y102.343 E17.95296
G1 X143.622 Y102.202 E17.97135
G1 X143.860 Y102.033 E17.98977
G1 X144.078 Y101.839 E18.00818
G1 X144.272 Y101.621 E18.02660
G1 X144.441 Y101.383 E18.04501
G1 X144.643 Y100.982 E18.07339
G1 X144.774 Y100.578 E18.10018
G1 X144.823 Y100.291 E18.11858
G1 X144.839 Y100.000 E18.13700
G1 X144.823 Y99.709 E18.15542
G1 X144.774 Y99.421 E18.17383
G1 X144.693 Y99.141 E18.19226
G1 X144.582 Y98.872 E18.21063
G1 X144.441 Y98.617 E18.22905
G1 X144.272 Y98.379 E18.24747
G1 X144.078 Y98.161 E18.26591
G1 X143.860 Y97.967 E18.28431
G1 X143.623 Y97.798 E18.30271
G1 X143.368 Y97.657 E18.32112
G1 X143.098 Y97.546 E18.33955
G1 X142.818 Y97.465 E18.35795
G1 X142.530 Y97.416 E18.37636
G1 X142.303 Y97.403 E18.39073
G1 X140.883 Y97.403 E18.48042
G1 X140.848 Y96.726 E18.52326
G1 X144.293 Y96.371 E18.74194
G1 X144.558 Y96.384 E18.75867
G1 X144.976 Y96.448 E18.78541
G1 X145.374 Y96.556 E18.81143
G1 X145.757 Y96.708 E18.83745
G1 X146.120 Y96.903 E18.86347
G1 X146.459 Y97.137 E18.88948
G1 X146.769 Y97.409 E18.91550
G1 X147.046 Y97.713 E18.94152
G1 X147.287 Y98.048 E18.96754
G1 X147.488 Y98.407 E18.99355
G1 X147.648 Y98.787 E19.01957
G1 X147.763 Y99.183 E19.04559
G1 X147.833 Y99.589 E19.07161
G1 X147.856 Y100.000 E19.09763
G1 X147.833 Y100.411 E19.12364
G1 X147.763 Y100.817 E19.14966
G1 X147.648 Y101.213 E19.17568
G1 X147.488 Y101.593 E19.20170
G1 X147.287 Y101.952 E19.22771
G1 X147.046 Y102.287 E19.25373
G1 X146.769 Y102.591 E19.27975
G1 X146.459 Y102.863 E19.30577
G1 X146.120 Y103.097 E19.33179
G1 X145.757 Y103.292 E19.35780
G1 X145.374 Y103.444 E19.38382
G1 X144.976 Y103.552 E19.40984
G1 X144.558 Y103.616 E19.43658
G1 X144.293 Y103.629 E19.45331
G1 X140.848 Y103.274 E19.67199
G1 X140.879 Y102.672 E19.71009
G1 X128.638 Y101.968 F7800.000
G1 X125.937 Y101.653 E19.88178 F540.000
G1 X125.937 Y98.347 E20.09054
G1 X128.638 Y98.031 E20.26225
G1 X128.173 Y98.872 E20.32289
G1 X128.062 Y99.141 E20.34129
G1 X127.981 Y99.421 E20.35971
G1 X127.932 Y99.709 E20.37812
G1 X127.916 Y100.000 E20.39653
G1 X127.932 Y100.291 E20.41493
G1 X127.981 Y100.579 E20.43338
G1 X128.062 Y100.859 E20.45175
G1 X128.173 Y101.128 E20.47019
G1 X128.601 Y101.903 E20.52606
G1 X125.044 Y102.448 F7800.000
G1 X125.044 Y97.552 E20.83518 F540.000
G1 X128.781 Y97.116 E21.07277
G1 X136.950 Y96.228 E21.59158
G1 X144.269 Y95.476 E22.05618
G1 X144.647 Y95.494 E22.08007
G1 X145.161 Y95.573 E22.11294
G1 X145.657 Y95.707 E22.14537
G1 X146.134 Y95.897 E22.17779
G1 X146.586 Y96.140 E22.21022
G1 X147.009 Y96.432 E22.24264
G1 X147.395 Y96.770 E22.27507
G1 X147.740 Y97.150 E22.30749
G1 X148.041 Y97.567 E22.33992
G1 X148.292 Y98.015 E22.37234
G1 X148.490 Y98.488 E22.40477
G1 X148.634 Y98.981 E22.43719
G1 X148.721 Y99.487 E22.46962
G1 X148.750 Y100.000 E22.50204
G1 X148.721 Y100.513 E22.53447
G1 X148.634 Y101.019 E22.56689
G1 X148.490 Y101.512 E22.59932
G1 X148.292 Y101.985 E22.63174
G1 X148.041 Y102.433 E22.66417
G1 X147.740 Y102.850 E22.69659
G1 X147.395 Y103.230 E22.72902
G1 X147.009 Y103.568 E22.76144
G1 X146.586 Y103.860 E22.79387
G1 X146.134 Y104.103 E22.82629
G1 X145.657 Y104.293 E22.85872
G1 X145.161 Y104.427 E22.89115
G1 X144.646 Y104.506 E22.92402
G1 X144.269 Y104.524 E22.94791
G1 X133.809 Y103.438 E23.61195
G1 X128.783 Y102.884 E23.93121
G1 X125.119 Y102.456 E24.16417
G1 X124.152 Y103.242 F7800.000
G1 X124.152 Y96.758 E24.57364 F378.000
G1 X128.681 Y96.229 E24.86160
G1 X136.857 Y95.340 E25.38092
G1 X144.244 Y94.582 E25.84983
G1 X144.736 Y94.605 E25.88089
G1 X145.346 Y94.698 E25.91988
G1 X145.939 Y94.859 E25.95871
G1 X146.511 Y95.086 E25.99755
G1 X147.053 Y95.377 E26.03638
G1 X147.558 Y95.727 E26.07521
G1 X148.021 Y96.132 E26.11405
G1 X148.435 Y96.587 E26.15288
G1 X148.795 Y97.086 E26.19171
G1 X149.095 Y97.623 E26.23054
G1 X149.333 Y98.190 E26.26938
G1 X149.505 Y98.780 E26.30821
G1 X149.610 Y99.386 E26.34704
G1 X149.645 Y100.000 E26.38587
G1 X149.610 Y100.614 E26.42471
G1 X149.505 Y101.220 E26.46354
G1 X149.333 Y101.810 E26.50237
G1 X149.095 Y102.377 E26.54120
G1 X148.795 Y102.914 E26.58004
G1 X148.435 Y103.413 E26.61887
G1 X148.021 Y103.868 E26.65770
G1 X147.559 Y104.273 E26.69654
G1 X147.053 Y104.623 E26.73537
G1 X146.511 Y104.914 E26.77420
G1 X145.939 Y105.141 E26.81303
G1 X145.346 Y105.302 E26.85187
G1 X144.736 Y105.395 E26.89086
G1 X144.244 Y105.419 E26.92192
G1 X133.713 Y104.326 E27.59051
G1 X128.682 Y103.771 E27.91008
G1 X124.226 Y103.251 E28.19338
G1 X124.418 Y102.819 F7800.000
G1 X126.607 Y101.100 F7800.000
G1 X126.564 Y101.057 E28.19720 F1080.000
G1 X127.300 Y100.214 E28.26782
G1 X126.564 Y99.479 E28.33349
G1 X127.498 Y98.834 E28.40512
G1 X127.463 Y98.800 E28.40817
G1 X130.502 Y97.613 F7800.000
G1 X134.848 Y97.376 E28.56213 F360.000
G1 X134.848 Y97.376 F7800.000
G1 X140.420 Y97.088 E29.11172 F360.000
G1 X134.860 Y102.624 F7800.000
G1 X130.495 Y102.387 E29.26631 F360.000
G1 X134.860 Y102.624 F7800.000
G1 X140.420 Y102.912 E29.81478 F360.000
G1 X143.587 Y97.068 F7800.000
G1 X144.043 Y97.163 E29.83125 F360.000
G1 X144.464 Y97.288 E29.84677
G1 X145.368 Y97.017 E29.88017
G1 X146.142 Y97.699 F7800.000
G1 X146.572 Y98.129 E29.91858 F1080.000
G1 X145.165 Y97.995 E30.00782
G1 X147.225 Y100.054 E30.19176
G1 X147.010 Y101.112 E30.25990
G1 X145.429 Y99.531 E30.40109
G1 X145.377 Y100.751 E30.47824
G1 X146.535 Y101.909 E30.58159
G1 X145.865 Y102.511 E30.63849
G1 X145.008 Y101.654 E30.71501
G1 X144.438 Y102.358 E30.77214
G1 X144.982 Y102.901 E30.82066
G1 X143.751 Y102.942 E30.89843
G1 X143.714 Y102.906 E30.90171
M104 S200 ; set temperature
G1 F1800.000 E29.90171
G92 E0
G1 Z0.900 F7800.000
G1 X88.239 Y117.411 F7800.000
G1 E1.00000 F1800.000
G1 X121.894 Y117.411 E1.95224 F1800.000
G1 X121.894 Y118.467 E1.98212
G1 X57.069 Y118.467 E3.81628
G1 X57.062 Y120.626 E3.87737
G1 X55.871 Y120.626 E3.91106
G1 X55.871 Y118.467 E3.97215
G1 X50.419 Y118.467 E4.12639
G1 X50.419 Y117.411 E4.15627
G1 X83.119 Y117.411 E5.08147
G1 X83.119 Y101.290 E5.53759
G1 X73.275 Y101.290 E5.81612
G1 X73.275 Y98.710 E5.88912
G1 X83.119 Y98.710 E6.16765
G1 X83.119 Y82.589 E6.62377
G1 X50.419 Y82.589 E7.54897
G1 X50.419 Y81.533 E7.57885
G1 X55.868 Y81.533 E7.73302
G1 X55.876 Y79.374 E7.79410
G1 X57.066 Y79.374 E7.82780
G1 X57.066 Y81.533 E7.88888
G1 X121.894 Y81.533 E9.72312
G1 X121.894 Y82.589 E9.75300
G1 X88.239 Y82.589 E10.70524
G1 X88.239 Y117.336 E11.68836
G1 X88.739 Y116.911 F7800.000
G1 X122.394 Y116.911 E12.64061 F1800.000
G1 X122.394 Y118.967 E12.69878
G1 X57.567 Y118.967 E14.53299
G1 X57.562 Y121.126 E14.59407
G1 X55.371 Y121.126 E14.65606
G1 X55.371 Y118.967 E14.71715
G1 X49.919 Y118.967 E14.87139
G1 X49.919 Y116.911 E14.92956
G1 X82.619 Y116.911 E15.85476
G1 X82.619 Y101.790 E16.28259
G1 X72.775 Y101.790 E16.56112
G1 X72.775 Y98.210 E16.66241
G1 X82.619 Y98.210 E16.94094
G1 X82.619 Y83.089 E17.36877
