; generated by Slic3r 1.1.7 on 2015-04-20 at 22:07:35

; perimeters extrusion width = 0.50mm
; infill extrusion width = 0.52mm
; solid infill extrusion width = 0.52mm
; top infill extrusion width = 0.52mm

G21 ; set units to millimeters
M107
M104 S200 ; set temperature
G28 ; home all axes
G1 Z5 F5000 ; lift nozzle

M109 S200 ; wait for temperature to be reached
G90 ; use absolute coordinates
G92 E0
M82 ; use absolute distances for extrusion
G1 F1800.000 E-1.00000
G92 E0
G1 Z0.500 F7800.000
G1 X111.973 Y50.844 F7800.000
G1 E1.00000 F1800.000
G1 X112.258 Y50.258 E1.04112 F600.000
G1 X113.431 Y48.555 E1.17171
G1 X115.314 Y47.129 E1.32086
G1 X117.545 Y46.425 E1.46860
G1 X119.884 Y46.509 E1.61634
G1 X122.059 Y47.369 E1.76408 F600.000
G1 X123.822 Y48.908 E1.91182
G1 X124.493 Y49.900 E1.98746
G1 X125.201 Y51.731 E2.11139
G1 X125.358 Y52.416 E2.15580
G1 X125.484 Y54.780 E2.30525
G1 X125.222 Y56.065 E2.38810
G1 X124.886 Y57.169 E2.46095
G1 X123.835 Y59.259 E2.60869
G1 X122.145 Y60.877 E2.75643
G1 X120.011 Y61.836 E2.90417
G1 X117.679 Y62.027 E3.05191
G1 X115.418 Y61.426 E3.19966
G1 X113.488 Y60.103 E3.34740
G1 X112.111 Y58.211 E3.49514
G1 X111.498 Y56.318 E3.62079
G1 X111.348 Y55.441 E3.67699
G1 X111.266 Y53.815 E3.77982
G1 X111.296 Y53.388 E3.80681
G1 X111.954 Y50.916 E3.96835
M106 S255
G1 F1800.000 E2.96835
G92 E0
G1 Z0.900 F7800.000
G1 X118.460 Y53.092 F7800.000
G1 E1.00000 F1800.000
G1 X118.372 Y53.417 E1.00953 F600.000
G1 X118.355 Y53.563 E1.01370
G1 X118.167 Y55.694 E1.07422
G1 X118.009 Y56.534 E1.09839
G1 F1800.000 E0.09839
G92 E0
G1 Z1.300 F7800.000
G1 X96.484 Y82.331 F7800.000
G1 E1.00000 F1800.000
M106 S255
G1 X96.181 Y83.526 E1.03424 F3600.000
G1 X96.072 Y84.063 E1.04947
G1 X95.745 Y84.063 E1.05855
G1 X95.636 Y83.526 E1.07379
G1 X95.333 Y82.331 E1.10803
G1 X95.908 Y81.933 E1.12746
G1 X96.422 Y82.288 E1.14481
M106 S255
G1 F1800.000 E0.14481
G92 E0
G1 X95.908 Y84.313 F7800.000
G1 E1.00000 F1800.000
G1 X95.908 Y86.030 E1.04859 F600.000
G1 F1800.000 E0.04859
G92 E0
G1 X96.082 Y82.504 F7800.000
G1 E1.00000 F1800.000
M106 S255
G1 X95.987 Y82.409 E1.00374 F3600.000
M106 S255
G1 F1800.000 E0.00374
G92 E0
G1 X92.275 Y67.616 F7800.000
G1 E1.00000 F1800.000
M106 S255
G1 X89.319 Y66.341 E1.08942 F3600.000
G1 X88.964 Y65.486 E1.11513
G1 X88.608 Y60.847 E1.24436
G1 X88.706 Y54.251 E1.42762
G1 X91.821 Y52.323 E1.52936
G1 X91.751 Y60.908 E1.76785
G1 X92.269 Y67.541 E1.95266
M106 S255
G1 X92.842 Y68.413 F7800.000
M106 S255
G1 X91.221 Y67.697 E2.00187 F3600.000
G1 X88.935 Y66.721 E2.07092
G1 X88.472 Y65.604 E2.10451
G1 X88.108 Y60.864 E2.23657
G1 X88.212 Y53.981 E2.42778
G1 X92.328 Y51.421 E2.56243
G1 X92.252 Y60.891 E2.82551
G1 X92.836 Y68.339 E3.03302
M106 S255
G1 X93.409 Y69.211 F7800.000
M106 S255
G1 X91.022 Y68.155 E3.10551 F3600.000
G1 X88.551 Y67.101 E3.18013
G1 X87.979 Y65.721 E3.22161
G1 X87.608 Y60.880 E3.35648
G1 X87.718 Y53.724 E3.55530
G1 X88.044 Y53.484 E3.56654
G1 X92.836 Y50.518 E3.72308
G1 X92.752 Y60.874 E4.01075
G1 X93.403 Y69.136 E4.24097
M106 S255
G1 X89.639 Y66.101 F7800.000
M106 S255
G1 X89.564 Y66.026 E4.24392 F3600.000
G1 X89.271 Y64.947 E4.27497
G1 X91.021 Y66.697 E4.34370
G1 X91.859 Y66.750 E4.36704
G1 X89.206 Y64.096 E4.47129
G1 X89.140 Y63.246 E4.49499
G1 X91.793 Y65.898 E4.59919
G1 X91.726 Y65.046 E4.62293
G1 X89.075 Y62.395 E4.72709
G1 X89.010 Y61.544 E4.75080
G1 X91.660 Y64.194 E4.85491
G1 X91.593 Y63.342 E4.87865
G1 X88.957 Y60.706 E4.98221
G1 X88.969 Y59.932 E5.00371
G1 X91.527 Y62.490 E5.10420
G1 X91.460 Y61.638 E5.12794
G1 X88.980 Y59.158 E5.22537
G1 X88.992 Y58.384 E5.24688
G1 X91.405 Y60.797 E5.34169
G1 X91.412 Y60.018 E5.36334
G1 X89.003 Y57.610 E5.45795
G1 X89.015 Y56.836 E5.47946
G1 X91.418 Y59.239 E5.57386
G1 X91.424 Y58.460 E5.59551
G1 X89.026 Y56.062 E5.68971
G1 X89.038 Y55.288 E5.71121
G1 X91.431 Y57.680 E5.80521
G1 X91.437 Y56.901 E5.82686
G1 X89.050 Y54.514 E5.92065
G1 X89.493 Y54.172 E5.93620
G1 X91.443 Y56.122 E6.01281
G1 X91.450 Y55.342 E6.03446
G1 X89.978 Y53.871 E6.09225
G1 X90.464 Y53.571 E6.10811
G1 X91.456 Y54.563 E6.14709
G1 X91.462 Y53.784 E6.16873
G1 X90.949 Y53.271 E6.18890
G1 X91.469 Y53.005 E6.20511
G1 X91.434 Y52.970 E6.20646
M106 S255
G1 F1800.000 E5.20646
G92 E0
G1 X99.542 Y67.616 F7800.000
G1 E1.00000 F1800.000
M106 S255
G1 X100.065 Y60.908 E1.18689 F3600.000
G1 X99.996 Y52.323 E1.42538
G1 X103.110 Y54.251 E1.52712
G1 X103.209 Y60.847 E1.71038
G1 X102.853 Y65.486 E1.83961
G1 X102.498 Y66.341 E1.86532
G1 X99.611 Y67.586 E1.95266
M106 S255
G1 X98.975 Y68.413 F7800.000
M106 S255
G1 X99.565 Y60.891 E2.16225 F3600.000
G1 X99.489 Y51.421 E2.42533
G1 X103.605 Y53.981 E2.55998
G1 X103.709 Y60.864 E2.75119
G1 X103.345 Y65.604 E2.88324
G1 X102.882 Y66.721 E2.91684
G1 X100.595 Y67.697 E2.98589
G1 X99.044 Y68.383 E3.03302
M106 S255
G1 X98.408 Y69.211 F7800.000
M106 S255
G1 X99.065 Y60.874 E3.26532 F3600.000
G1 X98.981 Y50.518 E3.55299
G1 X103.773 Y53.484 E3.70953
G1 X104.099 Y53.724 E3.72077
G1 X104.209 Y60.880 E3.91958
G1 X103.838 Y65.721 E4.05446
G1 X103.266 Y67.101 E4.09593
G1 X100.795 Y68.155 E4.17056
G1 X98.477 Y69.181 E4.24097
M106 S255
G1 X99.937 Y67.019 F7800.000
M106 S255
G1 X99.971 Y67.053 E4.24229 F3600.000
G1 X100.536 Y66.809 E4.25939
G1 X99.995 Y66.269 E4.28063
G1 X100.054 Y65.518 E4.30154
G1 X101.101 Y66.566 E4.34268
G1 X101.666 Y66.322 E4.35978
G1 X100.112 Y64.768 E4.42082
G1 X100.171 Y64.017 E4.44173
G1 X102.216 Y66.063 E4.52208
G1 X102.469 Y65.506 E4.53906
G1 X100.229 Y63.267 E4.62703
G1 X100.288 Y62.516 E4.64794
G1 X102.558 Y64.787 E4.73713
G1 X102.616 Y64.035 E4.75806
G1 X100.347 Y61.766 E4.84722
G1 X100.405 Y61.015 E4.86813
G1 X102.674 Y63.284 E4.95725
G1 X102.731 Y62.533 E4.97818
G1 X100.407 Y60.208 E5.06951
G1 X100.400 Y59.392 E5.09217
G1 X102.789 Y61.781 E5.18602
G1 X102.847 Y61.030 E5.20695
G1 X100.393 Y58.576 E5.30333
G1 X100.387 Y57.761 E5.32599
G1 X102.853 Y60.227 E5.42285
G1 X102.840 Y59.405 E5.44567
G1 X100.380 Y56.945 E5.54231
G1 X100.374 Y56.129 E5.56497
G1 X102.828 Y58.584 E5.66139
G1 X102.816 Y57.763 E5.68420
G1 X100.367 Y55.314 E5.78040
G1 X100.360 Y54.498 E5.80306
G1 X102.804 Y56.941 E5.89904
G1 X102.791 Y56.120 E5.92185
G1 X100.354 Y53.682 E6.01761
G1 X100.562 Y53.082 E6.03527
G1 X102.779 Y55.299 E6.12236
G1 X102.767 Y54.477 E6.14517
G1 X102.685 Y54.396 E6.14839
M106 S255
G1 F1800.000 E5.14839
G92 E0
G1 X117.867 Y58.171 F7800.000
G1 E1.00000 F1800.000
G1 X117.911 Y57.461 E1.02012 F600.000
G1 X117.962 Y57.192 E1.02787
G1 X118.327 Y53.402 E1.13558
G1 X118.355 Y52.845 E1.15139
G1 F1800.000 E0.15139
G92 E0
G1 Z1.700 F7800.000
G1 X95.908 Y89.532 F7800.000
G1 E1.00000 F1800.000
M106 S255
G1 X96.218 Y88.687 E1.02502 F3600.000
G1 X96.479 Y86.875 E1.07586
G1 X96.855 Y86.907 E1.08634
G1 X96.801 Y88.908 E1.14195
G1 X96.062 Y91.655 E1.22099
G1 X95.755 Y91.655 E1.22950
G1 X95.016 Y88.908 E1.30853
G1 X94.962 Y86.907 E1.36415
G1 X95.338 Y86.875 E1.37462
G1 X95.599 Y88.687 E1.42547
G1 X95.883 Y89.462 E1.44841
M106 S255
G1 X96.688 Y86.642 F7800.000
G1 X96.794 Y85.394 E1.48383 F633.943
G1 X97.181 Y83.252 E1.54543
G1 F1800.000 E0.54543
G92 E0
G1 X94.602 Y83.063 F7800.000
G1 E1.00000 F1800.000
G1 X95.023 Y85.394 E1.06704 F633.943
G1 X95.129 Y86.642 E1.10246
G1 F1800.000 E0.10246
G92 E0
G1 X96.108 Y90.062 F7800.000
G1 E1.00000 F1800.000
G1 X96.031 Y90.304 E1.00437 F603.755
G1 X95.908 Y90.466 E1.00786
G1 X95.908 Y90.907 E1.01543
G1 F1800.000 E0.01543
G92 E0
G1 X91.825 Y52.337 F7800.000
G1 E1.00000 F1800.000
G1 X91.756 Y60.925 E1.24301 F905.633
G1 X92.417 Y69.319 E1.48124
M106 S255
G1 X92.539 Y70.808 E1.52273 F3600.000
G1 X92.791 Y75.754 E1.66030
G1 X93.026 Y77.638 E1.71303
G1 X92.712 Y77.739 E1.72222
G1 X91.092 Y74.786 E1.81579
G1 X90.138 Y74.107 E1.84831
G1 X89.109 Y70.304 E1.95774
G1 X87.111 Y65.487 E2.10261
G1 X86.755 Y60.994 E2.22780
G1 X86.853 Y55.609 E2.37742
G1 X87.190 Y55.362 E2.38901
M106 S255
G1 X88.598 Y54.330 E2.43841 F905.633
G1 X91.762 Y52.376 E2.54361
G1 X92.333 Y51.436 F7800.000
G1 X92.256 Y60.908 E2.81163 F905.633
G1 X92.938 Y69.549 E3.05688
M106 S255
G1 X93.038 Y70.775 E3.09103 F3600.000
G1 X93.289 Y75.710 E3.22830
G1 X93.808 Y79.854 E3.34430
G1 X93.504 Y79.961 E3.35325
G1 X92.236 Y77.912 E3.42016
G1 X90.708 Y75.126 E3.50842
G1 X89.704 Y74.415 E3.54261
G1 X88.635 Y70.466 E3.65626
G1 X86.618 Y65.604 E3.80245
G1 X86.254 Y61.010 E3.93046
G1 X86.359 Y55.351 E4.08769
G1 X87.199 Y54.735 E4.11663
M106 S255
G1 X88.318 Y53.915 E4.15590 F905.633
G1 X92.269 Y51.475 E4.28727
G1 X92.840 Y50.535 F7800.000
G1 X92.756 Y60.891 E4.58029 F633.943
G1 X93.458 Y69.780 E4.83257
M106 S255
G1 X93.537 Y70.741 E4.85937 F3600.000
G1 X93.788 Y75.666 E4.99635
G1 X94.405 Y80.606 E5.13462
G1 X94.471 Y80.992 E5.14551
G1 X93.170 Y80.372 E5.18553
G1 X91.804 Y78.164 E5.25765
G1 X90.325 Y75.467 E5.34312
G1 X89.269 Y74.723 E5.37898
G1 X88.160 Y70.628 E5.49684
G1 X86.126 Y65.722 E5.64435
G1 X85.754 Y61.027 E5.77519
G1 X85.864 Y55.094 E5.94002
G1 X87.209 Y54.108 E5.98635
M106 S255
G1 X88.039 Y53.500 E6.01545 F633.943
G1 X92.776 Y50.575 E6.17299
G1 F1800.000 E5.17299
G92 E0
G1 X87.264 Y54.605 F7800.000
G1 X90.646 Y53.473 F7800.000
G1 E1.00000 F1800.000
G1 X90.564 Y53.555 E1.00340 F1509.388
G1 X90.552 Y54.328 E1.02613
G1 X91.470 Y53.410 E1.06428
G1 X91.464 Y54.178 E1.08686
G1 X90.541 Y55.101 E1.12523
G1 X90.529 Y55.874 E1.14796
G1 X91.457 Y54.946 E1.18655
G1 X91.451 Y55.714 E1.20913
G1 X90.518 Y56.647 E1.24794
G1 X90.506 Y57.420 E1.27067
G1 X91.445 Y56.481 E1.30971
G1 X91.439 Y57.249 E1.33228
G1 X90.495 Y58.193 E1.37153
G1 X90.483 Y58.966 E1.39427
G1 X91.432 Y58.017 E1.43374
G1 X91.426 Y58.785 E1.45632
G1 X90.472 Y59.739 E1.49601
G1 X90.460 Y60.512 E1.51874
G1 X91.420 Y59.552 E1.55866
G1 X91.414 Y60.320 E1.58124
G1 X90.493 Y61.241 E1.61953
G1 X90.547 Y61.949 E1.64040
G1 X91.419 Y61.076 E1.67668
G1 X91.474 Y61.783 E1.69754
G1 X90.601 Y62.656 E1.73384
G1 X90.655 Y63.364 E1.75471
G1 X91.528 Y62.491 E1.79102
G1 X91.582 Y63.198 E1.81188
G1 X90.709 Y64.071 E1.84819
G1 X90.763 Y64.779 E1.86906
G1 X91.636 Y63.905 E1.90539
G1 X91.690 Y64.613 E1.92625
G1 X91.177 Y65.126 E1.94760
G1 X91.711 Y65.354 E1.96466
G1 X91.745 Y65.320 E1.96607
G1 X91.292 Y65.386 F7800.000
M106 S255
G1 X91.292 Y74.503 E2.21932 F3600.000
G1 X90.696 Y74.078 E2.23964
G1 X90.696 Y65.131 E2.48816
M106 S255
G1 F1800.000 E1.48816
G92 E0
G1 X91.888 Y67.107 F7800.000
G1 E1.00000 F1800.000
M106 S255
G1 X91.888 Y75.516 E1.23358 F3600.000
G1 X92.484 Y76.274 E1.26037
G1 X92.484 Y76.092 E1.26543
M106 S255
G1 X90.101 Y72.639 F7800.000
M106 S255
G1 X90.101 Y53.810 E1.78848 F3600.000
G1 X89.505 Y54.177 E1.80793
G1 X89.505 Y67.761 E2.18526
M106 S255
G1 X88.313 Y67.481 F7800.000
M106 S255
G1 X88.313 Y54.968 E2.53282 F3600.000
G1 X88.909 Y54.545 E2.55312
G1 X88.909 Y68.917 E2.95233
G1 X89.505 Y67.885 E2.98544
G1 X89.505 Y70.439 E3.05640
M106 S255
G1 X87.717 Y66.044 F7800.000
M106 S255
G1 X87.717 Y55.405 E3.35192 F3600.000
M106 S255
G1 F1800.000 E2.35192
G92 E0
G1 X87.122 Y59.890 F7800.000
G1 E1.00000 F1800.000
M106 S255
G1 X87.122 Y61.236 E1.03738 F3600.000
M106 S255
G1 F1800.000 E0.03738
G92 E0
G1 X99.991 Y52.337 F7800.000
G1 E1.00000 F1800.000
G1 X103.219 Y54.330 E1.10733 F905.633
G1 X104.627 Y55.362 E1.15673
M106 S255
G1 X104.964 Y55.609 E1.16832 F3600.000
G1 X105.062 Y60.994 E1.31793
G1 X104.706 Y65.487 E1.44313
G1 X102.708 Y70.304 E1.58799
G1 X101.678 Y74.107 E1.69742
G1 X100.725 Y74.786 E1.72995
G1 X99.105 Y77.739 E1.82351
G1 X98.790 Y77.638 E1.83270
G1 X99.026 Y75.754 E1.88544
G1 X99.278 Y70.808 E2.02300
G1 X99.400 Y69.319 E2.06449
M106 S255
G1 X100.061 Y60.925 E2.30273 F905.633
G1 X99.992 Y52.412 E2.54361
G1 X99.484 Y51.436 F7800.000
G1 X103.499 Y53.915 E2.67711 F905.633
G1 X104.618 Y54.735 E2.71637
M106 S255
G1 X105.458 Y55.351 E2.74531 F3600.000
G1 X105.563 Y61.010 E2.90254
G1 X105.199 Y65.604 E3.03055
G1 X103.182 Y70.466 E3.17674
G1 X102.113 Y74.415 E3.29039
G1 X101.109 Y75.126 E3.32458
G1 X99.581 Y77.912 E3.41284
G1 X98.313 Y79.961 E3.47976
G1 X98.009 Y79.854 E3.48870
G1 X98.528 Y75.710 E3.60470
G1 X98.779 Y70.775 E3.74197
G1 X98.879 Y69.549 E3.77612
M106 S255
G1 X99.561 Y60.908 E4.02138 F905.633
G1 X99.485 Y51.511 E4.28727
G1 X98.977 Y50.535 F7800.000
G1 X103.778 Y53.500 E4.44693 F633.943
G1 X104.608 Y54.108 E4.47603
M106 S255
G1 X105.953 Y55.094 E4.52235 F3600.000
G1 X106.063 Y61.027 E4.68719
G1 X105.691 Y65.722 E4.81802
G1 X103.657 Y70.628 E4.96554
G1 X102.548 Y74.723 E5.08340
G1 X101.492 Y75.467 E5.11926
G1 X100.013 Y78.164 E5.20472
G1 X98.646 Y80.372 E5.27685
G1 X97.346 Y80.992 E5.31686
G1 X97.411 Y80.606 E5.32775
G1 X98.029 Y75.666 E5.46603
G1 X98.280 Y70.741 E5.60300
G1 X98.359 Y69.780 E5.62981
M106 S255
G1 X99.061 Y60.891 E5.88209 F633.943
G1 X98.977 Y50.610 E6.17299
G1 F1800.000 E5.17299
G92 E0
G1 X98.771 Y70.063 F7800.000
G1 X101.043 Y64.919 F7800.000
G1 E1.00000 F1800.000
G1 X100.984 Y64.979 E1.00248 F1509.388
G1 X101.105 Y64.117 E1.02808
G1 X100.086 Y65.135 E1.07042
G1 X100.148 Y64.333 E1.09410
G1 X101.166 Y63.315 E1.13643
G1 X101.227 Y62.512 E1.16010
G1 X100.209 Y63.530 E1.20241
G1 X100.271 Y62.727 E1.22609
G1 X101.288 Y61.710 E1.26839
G1 X101.351 Y60.906 E1.29211
G1 X100.332 Y61.924 E1.33447
G1 X100.394 Y61.121 E1.35815
G1 X101.351 Y60.164 E1.39796
G1 X101.341 Y59.434 E1.41944
G1 X100.403 Y60.371 E1.45841
G1 X100.398 Y59.635 E1.48003
G1 X101.330 Y58.703 E1.51880
G1 X101.319 Y57.973 E1.54028
G1 X100.392 Y58.900 E1.57884
G1 X100.386 Y58.165 E1.60046
G1 X101.308 Y57.243 E1.63881
G1 X101.297 Y56.512 E1.66029
G1 X100.380 Y57.430 E1.69844
G1 X100.374 Y56.694 E1.72006
G1 X101.286 Y55.782 E1.75801
G1 X101.275 Y55.051 E1.77948
G1 X100.368 Y55.959 E1.81722
G1 X100.362 Y55.224 E1.83884
G1 X101.264 Y54.321 E1.87638
G1 X101.253 Y53.591 E1.89786
G1 X100.356 Y54.488 E1.93518
G1 X100.350 Y53.753 E1.95681
G1 X100.837 Y53.266 E1.97705
G1 X100.378 Y52.983 E1.99288
G1 X100.344 Y53.018 E1.99431
G1 X101.624 Y53.753 F7800.000
M106 S255
G1 X101.489 Y56.405 E2.06807 F3600.000
M106 S255
G1 F1800.000 E1.06807
G92 E0
G1 X104.395 Y55.622 F7800.000
G1 E1.00000 F1800.000
M106 S255
G1 X103.832 Y66.689 E1.30783 F3600.000
M106 S255
G1 X103.178 Y68.265 F7800.000
M106 S255
G1 X103.842 Y55.217 E1.67074 F3600.000
G1 X103.290 Y54.812 E1.68977
G1 X102.525 Y69.840 E2.10776
M106 S255
G1 X101.831 Y72.215 F7800.000
M106 S255
G1 X102.736 Y54.439 E2.60218 F3600.000
G1 X102.180 Y54.096 E2.62032
G1 X101.165 Y74.047 E3.17523
G1 X100.570 Y74.470 E3.19551
G1 X101.044 Y65.164 E3.45435
M106 S255
G1 X100.458 Y65.414 F7800.000
M106 S255
G1 X99.945 Y75.486 E3.73448 F3600.000
G1 X99.347 Y75.982 E3.75606
G1 X99.332 Y76.274 E3.76419
M106 S255
G1 F1800.000 E2.76419
G92 E0
G1 X104.659 Y61.689 F7800.000
G1 E1.00000 F1800.000
M106 S255
G1 X104.710 Y60.694 E1.02768 F3600.000
M106 S255
G1 F1800.000 E0.02768
G92 E0
G1 X117.669 Y59.726 F7800.000
G1 E1.00000 F1800.000
G1 X117.706 Y58.961 E1.02168 F633.943
G1 X117.757 Y58.689 E1.02950
G1 X118.268 Y53.342 E1.18150
G1 X118.203 Y52.919 E1.19359
G1 F1800.000 E0.19359
G92 E0
G1 Z2.100 F7800.000
G1 X95.908 Y94.114 F7800.000
G1 E1.00000 F1800.000
M106 S255
G1 X96.547 Y92.756 E1.04168 F3600.000
G1 X96.869 Y92.841 E1.05094
G1 X96.808 Y93.643 E1.07327
G1 X96.168 Y95.496 E1.12775
G1 X96.058 Y95.869 E1.13853
G1 X95.759 Y95.869 E1.14683
G1 X95.649 Y95.496 E1.15761
G1 X95.009 Y93.643 E1.21209
G1 X94.948 Y92.841 E1.23442
G1 X95.270 Y92.756 E1.24368
G1 X95.877 Y94.046 E1.28328
M106 S255
G1 X97.217 Y90.561 F7800.000
G1 X96.910 Y92.027 E1.32567 F784.270
G1 X96.772 Y92.557 E1.34115
G1 X95.045 Y92.557 F7800.000
G1 X94.907 Y92.027 E1.35663 F784.270
