; generated by Slic3r 1.1.7 on 2015-04-20 at 21:52:40

; perimeters extrusion width = 0.50mm
; infill extrusion width = 0.52mm
; solid infill extrusion width = 0.52mm
; top infill extrusion width = 0.52mm

G21 ; set units to millimeters
M107
M104 S200 ; set temperature
G28 ; home all axes
G1 Z5 F5000 ; lift nozzle

M109 S200 ; wait for temperature to be reached
G90 ; use absolute coordinates
G92 E0
M82 ; use absolute distances for extrusion
G1 F1800.000 E-1.00000
G92 E0
G1 Z0.500 F7800.000
G1 X91.746 Y93.225 F7800.000
G1 E1.00000 F1800.000
G1 X93.774 Y92.057 E1.14774 F600.000
G1 X96.075 Y91.635 E1.29548
G1 X98.385 Y92.006 E1.44322
G1 X99.956 Y92.780 E1.55377 F600.000
G1 X101.556 Y93.839 E1.67495
G1 X103.259 Y95.443 E1.82269
G1 X104.328 Y97.525 E1.97043
G1 X104.638 Y99.844 E2.11817
G1 X104.155 Y102.133 E2.26591
G1 X102.935 Y104.129 E2.41365
G1 X101.116 Y105.601 E2.56139
G1 X97.951 Y106.476 E2.76877
G1 X97.399 Y106.476 E2.80361
G1 X95.227 Y106.058 E2.94330
G1 X93.520 Y105.432 E3.05812
G1 X91.492 Y104.265 E3.20586
G1 X89.971 Y102.488 E3.35360
G1 X89.132 Y100.303 E3.50134
G1 X89.072 Y97.964 E3.64908
G1 X89.968 Y95.437 E3.81842
G1 X90.226 Y95.003 E3.85027
G1 X91.698 Y93.282 E3.99327
M106 S255
G1 F1800.000 E2.99327
G92 E0
G1 Z0.900 F7800.000
G1 Z1.300 F7800.000
G1 Z1.700 F7800.000
G1 Z2.100 F7800.000
G1 Z2.500 F7800.000
G1 Z2.900 F7800.000
G1 Z3.300 F7800.000
G1 Z3.700 F7800.000
G1 Z4.100 F7800.000
G1 Z4.500 F7800.000
G1 Z4.900 F7800.000
G1 Z5.300 F7800.000
G1 Z5.700 F7800.000
G1 Z6.100 F7800.000
G1 Z6.500 F7800.000
G1 Z6.900 F7800.000
G1 Z7.300 F7800.000
G1 Z7.700 F7800.000
G1 Z8.100 F7800.000
G1 Z8.500 F7800.000
G1 Z8.900 F7800.000
G1 Z9.300 F7800.000
G1 Z9.700 F7800.000
G1 Z10.100 F7800.000
G1 Z10.500 F7800.000
G1 Z10.900 F7800.000
G1 Z11.300 F7800.000
G1 Z11.700 F7800.000
G1 Z12.100 F7800.000
G1 Z12.500 F7800.000
G1 Z12.900 F7800.000
G1 Z13.300 F7800.000
G1 Z13.700 F7800.000
M107
M104 S0 ; turn off temperature
G28 X0  ; home X axis
M84     ; disable motors

; filament used = 3.0mm (0.0cm3)

; avoid_crossing_perimeters = 1
; bed_size = 200,200
; bed_temperature = 0
; bridge_acceleration = 0
; bridge_fan_speed = 100
; bridge_flow_ratio = 1
; brim_width = 0
; complete_objects = 0
; cooling = 1
; default_acceleration = 0
; disable_fan_first_layers = 1
; duplicate_distance = 6
; end_gcode = M104 S0 ; turn off temperature\nG28 X0  ; home X axis\nM84     ; disable motors\n
; external_perimeters_first = 0
; extruder_clearance_height = 20
; extruder_clearance_radius = 20
; extruder_offset = 0x0
; extrusion_axis = E
; extrusion_multiplier = 1
; fan_always_on = 0
; fan_below_layer_time = 60
; filament_diameter = 3
; first_layer_acceleration = 0
; first_layer_bed_temperature = 0
; first_layer_extrusion_width = 200%
; first_layer_speed = 30%
; first_layer_temperature = 200
; g0 = 0
; gcode_arcs = 0
; gcode_comments = 0
; gcode_flavor = reprap
; infill_acceleration = 0
; infill_first = 0
; layer_gcode = 
; max_fan_speed = 100
; min_fan_speed = 35
; min_print_speed = 10
; min_skirt_length = 0
; notes = 
; nozzle_diameter = 0.5
; only_retract_when_crossing_perimeters = 1
; ooze_prevention = 0
; output_filename_format = [input_filename_base].gcode
; perimeter_acceleration = 0
; post_process = 
; print_center = 100,100
; resolution = 0
; retract_before_travel = 2
; retract_layer_change = 1
; retract_length = 1
; retract_length_toolchange = 10
; retract_lift = 0
; retract_restart_extra = 0
; retract_restart_extra_toolchange = 0
; retract_speed = 30
; skirt_distance = 6
; skirt_height = 1
; skirts = 1
; slowdown_below_layer_time = 30
; spiral_vase = 0
; standby_temperature_delta = -5
; start_gcode = G28 ; home all axes\nG1 Z5 F5000 ; lift nozzle\n
; temperature = 200
; threads = 2
; toolchange_gcode = 
; travel_speed = 130
; use_firmware_retraction = 0
; use_relative_e_distances = 0
; vibration_limit = 0
; wipe = 0
; z_offset = 0
; dont_support_bridges = 1
; extrusion_width = 0
; first_layer_height = 0.5
; infill_only_where_needed = 0
; interface_shells = 0
; layer_height = 0.4
; raft_layers = 0
; seam_position = aligned
; support_material = 0
; support_material_angle = 0
; support_material_enforce_layers = 0
; support_material_extruder = 1
; support_material_extrusion_width = 0
; support_material_interface_extruder = 1
; support_material_interface_layers = 3
; support_material_interface_spacing = 0
; support_material_interface_speed = 100%
; support_material_pattern = pillars
; support_material_spacing = 2.5
; support_material_speed = 60
; support_material_threshold = 0
; bottom_solid_layers = 3
; bridge_speed = 60
; external_perimeter_speed = 70%
; extra_perimeters = 1
; fill_angle = 45
; fill_density = 40%
; fill_pattern = honeycomb
; gap_fill_speed = 20
; infill_every_layers = 10
; infill_extruder = 1
; infill_extrusion_width = 0
; infill_speed = 60
; overhangs = 1
; perimeter_extruder = 1
; perimeter_extrusion_width = 0
; perimeter_speed = 30
; perimeters = 3
; small_perimeter_speed = 30
; solid_fill_pattern = rectilinear
; solid_infill_below_area = 70
; solid_infill_every_layers = 0
; solid_infill_extrusion_width = 0
; solid_infill_speed = 60
; thin_walls = 1
; top_infill_extrusion_width = 0
; top_solid_infill_speed = 50
; top_solid_layers = 3
