; generated by Slic3r 1.1.7 on 2015-04-20 at 22:17:14

; perimeters extrusion width = 0.50mm
; infill extrusion width = 0.52mm
; solid infill extrusion width = 0.52mm
; top infill extrusion width = 0.52mm

G21 ; set units to millimeters
M107
M104 S200 ; set temperature
G28 ; home all axes
G1 Z5 F5000 ; lift nozzle

M109 S200 ; wait for temperature to be reached
G90 ; use absolute coordinates
G92 E0
M82 ; use absolute distances for extrusion
G1 F1800.000 E-1.00000
G92 E0
G1 Z0.500 F7800.000
G1 X94.887 Y93.049 F7800.000
G1 E1.00000 F1800.000
G1 X96.855 Y91.784 E1.14774 F600.000
G1 X99.544 Y91.237 E1.32103
G1 X100.456 Y91.237 E1.37860
G1 X102.762 Y91.634 E1.52634
G1 X104.802 Y92.780 E1.67408 F600.000
G1 X106.341 Y94.542 E1.82182
G1 X107.270 Y97.090 E1.99308
G1 X107.424 Y98.142 E2.06021
G1 X107.618 Y99.906 E2.17229
G1 X107.472 Y102.252 E2.32070
G1 X107.431 Y102.423 E2.33179
G1 X106.621 Y104.400 E2.46672
G1 X106.372 Y104.811 E2.49705
G1 X105.680 Y105.760 E2.57120
G1 X104.889 Y106.641 E2.64600
G1 X103.782 Y107.538 E2.73595
G1 X101.686 Y108.456 E2.88046
G1 X99.147 Y108.611 E3.04106
G1 X97.017 Y107.984 E3.18126
G1 X95.713 Y107.170 E3.27834
G1 X94.774 Y106.279 E3.36006
G1 X93.664 Y104.869 E3.47341
G1 X93.411 Y104.461 E3.50370
G1 X92.510 Y102.185 E3.65828
G1 X92.476 Y102.015 E3.66924
G1 X92.391 Y99.834 E3.80706
G1 X92.608 Y98.029 E3.92187
G1 X92.726 Y97.123 E3.97956
G1 X93.455 Y94.900 E4.12730
G1 X94.841 Y93.108 E4.27031
M106 S255
G1 F1800.000 E3.27031
G92 E0
G1 Z0.900 F7800.000
G1 X100.264 Y99.425 F7800.000
G1 E1.00000 F1800.000
G1 X100.270 Y99.632 E1.00588 F600.000
G1 X100.216 Y99.855 E1.01236
G1 X100.159 Y100.009 E1.01702
G1 X100.001 Y100.145 E1.02290
G1 X99.905 Y100.091 E1.02601
G1 X99.777 Y99.895 E1.03265
G1 X99.733 Y99.647 E1.03975
G1 X99.748 Y99.576 E1.04182
G1 X99.740 Y99.425 E1.04609
G1 F1800.000 E0.04609
G92 E0
M107
M104 S0 ; turn off temperature
G28 X0  ; home X axis
M84     ; disable motors

; filament used = 3.3mm (0.0cm3)

; avoid_crossing_perimeters = 1
; bed_size = 200,200
; bed_temperature = 0
; bridge_acceleration = 0
; bridge_fan_speed = 100
; bridge_flow_ratio = 1
; brim_width = 0
; complete_objects = 0
; cooling = 1
; default_acceleration = 0
; disable_fan_first_layers = 1
; duplicate_distance = 6
; end_gcode = M104 S0 ; turn off temperature\nG28 X0  ; home X axis\nM84     ; disable motors\n
; external_perimeters_first = 0
; extruder_clearance_height = 20
; extruder_clearance_radius = 20
; extruder_offset = 0x0
; extrusion_axis = E
; extrusion_multiplier = 1
; fan_always_on = 0
; fan_below_layer_time = 60
; filament_diameter = 3
; first_layer_acceleration = 0
; first_layer_bed_temperature = 0
; first_layer_extrusion_width = 200%
; first_layer_speed = 30%
; first_layer_temperature = 200
; g0 = 0
; gcode_arcs = 0
; gcode_comments = 0
; gcode_flavor = reprap
; infill_acceleration = 0
; infill_first = 0
; layer_gcode = 
; max_fan_speed = 100
; min_fan_speed = 35
; min_print_speed = 10
; min_skirt_length = 0
; notes = 
; nozzle_diameter = 0.5
; only_retract_when_crossing_perimeters = 1
; ooze_prevention = 0
; output_filename_format = [input_filename_base].gcode
; perimeter_acceleration = 0
; post_process = 
; print_center = 100,100
; resolution = 0
; retract_before_travel = 2
; retract_layer_change = 1
; retract_length = 1
; retract_length_toolchange = 10
; retract_lift = 0
; retract_restart_extra = 0
; retract_restart_extra_toolchange = 0
; retract_speed = 30
; skirt_distance = 6
; skirt_height = 1
; skirts = 1
; slowdown_below_layer_time = 30
; spiral_vase = 0
; standby_temperature_delta = -5
; start_gcode = G28 ; home all axes\nG1 Z5 F5000 ; lift nozzle\n
; temperature = 200
; threads = 2
; toolchange_gcode = 
; travel_speed = 130
; use_firmware_retraction = 0
; use_relative_e_distances = 0
; vibration_limit = 0
; wipe = 0
; z_offset = 0
; dont_support_bridges = 1
; extrusion_width = 0
; first_layer_height = 0.5
; infill_only_where_needed = 0
; interface_shells = 0
; layer_height = 0.4
; raft_layers = 0
; seam_position = aligned
; support_material = 0
; support_material_angle = 0
; support_material_enforce_layers = 0
; support_material_extruder = 1
; support_material_extrusion_width = 0
; support_material_interface_extruder = 1
; support_material_interface_layers = 3
; support_material_interface_spacing = 0
; support_material_interface_speed = 100%
; support_material_pattern = pillars
; support_material_spacing = 2.5
; support_material_speed = 60
; support_material_threshold = 0
; bottom_solid_layers = 3
; bridge_speed = 60
; external_perimeter_speed = 70%
; extra_perimeters = 1
; fill_angle = 45
; fill_density = 40%
; fill_pattern = honeycomb
; gap_fill_speed = 20
; infill_every_layers = 10
; infill_extruder = 1
; infill_extrusion_width = 0
; infill_speed = 60
; overhangs = 1
; perimeter_extruder = 1
; perimeter_extrusion_width = 0
; perimeter_speed = 30
; perimeters = 3
; small_perimeter_speed = 30
; solid_fill_pattern = rectilinear
; solid_infill_below_area = 70
; solid_infill_every_layers = 0
; solid_infill_extrusion_width = 0
; solid_infill_speed = 60
; thin_walls = 1
; top_infill_extrusion_width = 0
; top_solid_infill_speed = 50
; top_solid_layers = 3
